assets/svg/1F60F.svg

<svg xmlns="http://www.w3.org/2000/svg" viewBox="0 0 64 64" enable-background="new 0 0 64 64"><path fill="#fbb041" d="m64.09 32.17c0 17.665-14.314 31.981-31.979 31.981-17.665 0-31.979-14.316-31.979-31.981 0-17.662 14.314-31.979 31.979-31.979 17.664.0001 31.979 14.317 31.979 31.979"/><g opacity=".987"><path fill="#e79d3c" d="m15.351 41.42c-5.669-12.157-5.921-25.24-.798-36.06-8.682 5.716-14.422 15.539-14.422 26.714 0 17.665 14.314 31.979 31.979 31.979.316 0 .624-.04.936-.048-7.331-6.17-13.508-13.596-17.695-22.582"/></g><g fill="#633d19"><path d="m23.398 15.672c-5.536 1.129-11.226 2.761-14.549 7.688-1.239 1.834 1.526 3.869 2.765 2.034 2.814-4.169 7.683-5.386 12.346-6.334 2.162-.438 1.615-3.831-.562-3.388"/><path d="m43.701 13.956c5.536 1.127 11.226 2.759 14.55 7.688 1.238 1.833-1.526 3.869-2.765 2.034-2.814-4.171-7.683-5.384-12.346-6.334-2.162-.44-1.616-3.831.561-3.388"/><path d="m27.14 49.76c5.423.466 11.07.332 16.12-2.519 2.362-1.329 4.049-4.09 4.468-2.948.928 2.528-2.02 6.067-3.394 6.746-5.55 2.746-11.528 2.754-17.356 2.256-.252-.023-.49-.091-.703-.201-.747-.396-1.122-1.327-.873-2.169.229-.779.908-1.237 1.734-1.165"/></g><g fill="#fff"><path d="m35.928 28.45c.486 5.267 4.866 9.407 10.262 9.407s9.776-4.14 10.262-9.407h-20.524"/><path d="m9.641 28.45c.488 5.267 4.869 9.407 10.264 9.407s9.776-4.14 10.264-9.407h-20.528"/></g><g fill="#25333a"><path d="m18.742 28.422c.272 2.935 2.709 5.238 5.713 5.238s5.441-2.303 5.714-5.238h-11.427"/><path d="m45.02 28.422c.272 2.935 2.71 5.238 5.714 5.238s5.44-2.303 5.713-5.238h-11.427"/></g></svg>

<?xml version="1.0" encoding="UTF-8" standalone="no"?>
<!-- Generator: Adobe Illustrator 16.0.0, SVG Export Plug-In . SVG Version: 6.00 Build 0)  -->

<svg
   xmlns:dc="http://purl.org/dc/elements/1.1/"
   xmlns:cc="http://creativecommons.org/ns#"
   xmlns:rdf="http://www.w3.org/1999/02/22-rdf-syntax-ns#"
   xmlns:svg="http://www.w3.org/2000/svg"
   xmlns="http://www.w3.org/2000/svg"
   xmlns:sodipodi="http://sodipodi.sourceforge.net/DTD/sodipodi-0.dtd"
   xmlns:inkscape="http://www.inkscape.org/namespaces/inkscape"
   version="1.1"
   id="Layer_1"
   x="0px"
   y="0px"
   width="64px"
   height="64px"
   viewBox="0 0 64 64"
   enable-background="new 0 0 64 64"
   xml:space="preserve"
   inkscape:version="0.48.5 r10040"
   sodipodi:docname="1F60F.svg"
   inkscape:export-filename="D:\TESTINGEMOJI\SVGTEST\1F60F.png"
   inkscape:export-xdpi="90"
   inkscape:export-ydpi="90"><metadata
   id="metadata3583"><rdf:RDF><cc:Work
       rdf:about=""><dc:format>image/svg+xml</dc:format><dc:type
         rdf:resource="http://purl.org/dc/dcmitype/StillImage" /><dc:title></dc:title></cc:Work></rdf:RDF></metadata><defs
   id="defs3581" /><sodipodi:namedview
   pagecolor="#ffffff"
   bordercolor="#666666"
   borderopacity="1"
   objecttolerance="10"
   gridtolerance="10"
   guidetolerance="10"
   inkscape:pageopacity="0"
   inkscape:pageshadow="2"
   inkscape:window-width="640"
   inkscape:window-height="480"
   id="namedview3579"
   showgrid="false"
   inkscape:zoom="3.6875"
   inkscape:cx="32"
   inkscape:cy="32"
   inkscape:window-x="743"
   inkscape:window-y="345"
   inkscape:window-maximized="0"
   inkscape:current-layer="Layer_1" />
<g
   id="g3547">
	<g
   id="g3549">
		<g
   id="g3551">
			<path
   fill="#FBB041"
   d="M64.089,32.174c0,17.665-14.314,31.981-31.979,31.981c-17.665,0-31.979-14.316-31.979-31.981     c0-17.662,14.314-31.979,31.979-31.979C49.774,0.196,64.089,14.512,64.089,32.174z"
   id="path3553" />
		</g>
	</g>
	<g
   opacity="0.9866"
   id="g3555">
		<g
   id="g3557">
			<g
   id="g3559">
				<path
   fill="#E79D3C"
   d="M15.351,41.421C9.682,29.264,9.43,16.177,14.553,5.358C5.871,11.074,0.131,20.897,0.131,32.072      c0,17.665,14.314,31.979,31.979,31.979c0.316,0,0.624-0.04,0.936-0.048C25.715,57.833,19.538,50.407,15.351,41.421z"
   id="path3561" />
			</g>
		</g>
	</g>
	<path
   fill="#633D19"
   d="M23.398,15.672c-5.536,1.129-11.226,2.761-14.549,7.688c-1.239,1.834,1.526,3.869,2.765,2.034   c2.814-4.169,7.683-5.386,12.346-6.334C26.122,18.622,25.575,15.229,23.398,15.672z"
   id="path3563" />
	<path
   fill="#633D19"
   d="M43.701,13.956c5.536,1.127,11.226,2.759,14.55,7.688c1.238,1.833-1.526,3.869-2.765,2.034   c-2.814-4.171-7.683-5.384-12.346-6.334C40.978,16.904,41.524,13.513,43.701,13.956z"
   id="path3565" />
	<path
   fill="#633D19"
   d="M27.139,49.76c5.423,0.466,11.07,0.332,16.124-2.519c2.362-1.329,4.049-4.09,4.468-2.948   c0.928,2.528-2.019,6.067-3.394,6.746c-5.55,2.746-11.528,2.754-17.356,2.256c-0.252-0.023-0.49-0.091-0.703-0.201   c-0.747-0.396-1.122-1.327-0.873-2.169C25.634,50.146,26.313,49.688,27.139,49.76z"
   id="path3567" />
	<g
   id="g3569">
		<path
   fill="#FFFFFF"
   d="M35.928,28.45c0.486,5.267,4.866,9.407,10.262,9.407s9.776-4.14,10.262-9.407H35.928z"
   id="path3571" />
		<path
   fill="#FFFFFF"
   d="M9.641,28.45c0.488,5.267,4.869,9.407,10.264,9.407s9.776-4.14,10.264-9.407H9.641z"
   id="path3573" />
		<path
   fill="#25333A"
   d="M18.742,28.422c0.272,2.935,2.709,5.238,5.713,5.238s5.441-2.303,5.714-5.238H18.742z"
   id="path3575" />
		<path
   fill="#25333A"
   d="M45.024,28.422c0.272,2.935,2.71,5.238,5.714,5.238s5.44-2.303,5.713-5.238H45.024z"
   id="path3577" />
	</g>
</g>
</svg>
